Core Library/library/public/InterfaceImages/Cast_Spell.svg

<svg style="height: 512px; width: 512px;" xmlns="http://www.w3.org/2000/svg" viewBox="0 0 512 512"><defs><filter id="shadow-1" height="300%" width="300%" x="-100%" y="-100%"><feFlood flood-color="rgba(0, 0, 0, 1)" result="flood"></feFlood><feComposite in="flood" in2="SourceGraphic" operator="out" result="composite"></feComposite><feGaussianBlur in="composite" stdDeviation="7" result="blur"></feGaussianBlur><feOffset dx="0" dy="0" result="offset"></feOffset><feComposite in2="SourceGraphic" in="offset" operator="atop"></feComposite></filter><filter id="shadow-2" height="300%" width="300%" x="-100%" y="-100%"><feFlood flood-color="rgba(248, 231, 28, 1)" result="flood"></feFlood><feComposite in="flood" in2="SourceGraphic" operator="out" result="composite"></feComposite><feGaussianBlur in="composite" stdDeviation="7" result="blur"></feGaussianBlur><feOffset dx="0" dy="0" result="offset"></feOffset><feComposite in2="SourceGraphic" in="offset" operator="atop"></feComposite></filter><filter id="shadow-3" height="300%" width="300%" x="-100%" y="-100%"><feFlood flood-color="rgba(0, 0, 0, 1)" result="flood"></feFlood><feComposite in="flood" in2="SourceGraphic" operator="out" result="composite"></feComposite><feGaussianBlur in="composite" stdDeviation="5" result="blur"></feGaussianBlur><feOffset dx="0" dy="0" result="offset"></feOffset><feComposite in2="SourceGraphic" in="offset" operator="atop"></feComposite></filter><filter id="shadow-4" height="300%" width="300%" x="-100%" y="-100%"><feFlood flood-color="rgba(0, 0, 0, 1)" result="flood"></feFlood><feComposite in="flood" in2="SourceGraphic" operator="out" result="composite"></feComposite><feGaussianBlur in="composite" stdDeviation="5" result="blur"></feGaussianBlur><feOffset dx="0" dy="0" result="offset"></feOffset><feComposite in2="SourceGraphic" in="offset" operator="atop"></feComposite></filter></defs><rect fill="#000000" fill-opacity="1" height="512" width="512" rx="50" ry="50"></rect><g class="" style="" transform="translate(0,0)"><path d="M485.846 30l-172.967 74.424 64.283 20.32-129.627 65.186 83.637 19.414-96.996 62.219 219.133-69.7-95.29-28.326L471.192 112.8l-72.115-15.024L485.846 30zm-280.46 45.766c-28.066-.117-49.926 56.532-57.726 90.607-11.26 49.19-14.529 83.515-.828 133.059l-17.348 4.798c-15.463-55.917-8.245-94.75 2.301-142.341 10.547-47.592 14.52-70.403-4.459-74.182C85.244 79.328 82.04 178.17 79.57 222.604c-1.396 25.808.71 57.017 6.54 77.552l-16.901 6.196c-14.43-53.35-6.657-97.957-1.693-150.77 2.493-15.582-1.787-25.677-19.102-25.166-15.833.467-27.015 143.362-13.275 179.041 8.713 53.061 31.247 130.572 10.955 152.766L18 494h205.973l19.986-28.592c23.08-5.008 28.42-19.86 37.023-33.787 25.291-40.946 82.384-83.166 129.114-99.226 21.142-7.51-21.912-48.546-53.836-32.782-55.005 27.162-81.646 56.298-117.772 38.295-55.855-27.834-47.245-100.648-35.861-162.83 6.141-33.544 40.41-89.602 7.156-98.824a21.158 21.158 0 0 0-4.396-.488z" fill="#ffffff" fill-opacity="1" filter="url(#shadow-1)" transform="translate(25.6, 25.6) scale(0.9, 0.9) rotate(0, 256, 256) skewX(0) skewY(0)"></path></g></svg>

<svg style="height: 512px; width: 512px;" xmlns="http://www.w3.org/2000/svg" viewBox="0 0 512 512"><defs><filter id="shadow-1" height="300%" width="300%" x="-100%" y="-100%"><feFlood flood-color="rgba(0, 0, 0, 1)" result="flood"></feFlood><feComposite in="flood" in2="SourceGraphic" operator="out" result="composite"></feComposite><feGaussianBlur in="composite" stdDeviation="7" result="blur"></feGaussianBlur><feOffset dx="0" dy="0" result="offset"></feOffset><feComposite in2="SourceGraphic" in="offset" operator="atop"></feComposite></filter><filter id="shadow-2" height="300%" width="300%" x="-100%" y="-100%"><feFlood flood-color="rgba(0, 0, 0, 1)" result="flood"></feFlood><feComposite in="flood" in2="SourceGraphic" operator="out" result="composite"></feComposite><feGaussianBlur in="composite" stdDeviation="12" result="blur"></feGaussianBlur><feOffset dx="0" dy="0" result="offset"></feOffset><feComposite in2="SourceGraphic" in="offset" operator="atop"></feComposite></filter><filter id="shadow-3" height="300%" width="300%" x="-100%" y="-100%"><feFlood flood-color="rgba(0, 0, 0, 1)" result="flood"></feFlood><feComposite in="flood" in2="SourceGraphic" operator="out" result="composite"></feComposite><feGaussianBlur in="composite" stdDeviation="7" result="blur"></feGaussianBlur><feOffset dx="0" dy="0" result="offset"></feOffset><feComposite in2="SourceGraphic" in="offset" operator="atop"></feComposite></filter><filter id="shadow-4" height="300%" width="300%" x="-100%" y="-100%"><feFlood flood-color="rgba(0, 0, 0, 1)" result="flood"></feFlood><feComposite in="flood" in2="SourceGraphic" operator="out" result="composite"></feComposite><feGaussianBlur in="composite" stdDeviation="5" result="blur"></feGaussianBlur><feOffset dx="0" dy="0" result="offset"></feOffset><feComposite in2="SourceGraphic" in="offset" operator="atop"></feComposite></filter><filter id="shadow-5" height="300%" width="300%" x="-100%" y="-100%"><feFlood flood-color="rgba(0, 0, 0, 1)" result="flood"></feFlood><feComposite in="flood" in2="SourceGraphic" operator="out" result="composite"></feComposite><feGaussianBlur in="composite" stdDeviation="7" result="blur"></feGaussianBlur><feOffset dx="0" dy="0" result="offset"></feOffset><feComposite in2="SourceGraphic" in="offset" operator="atop"></feComposite></filter><filter id="shadow-6" height="300%" width="300%" x="-100%" y="-100%"><feFlood flood-color="rgba(0, 0, 0, 1)" result="flood"></feFlood><feComposite in="flood" in2="SourceGraphic" operator="out" result="composite"></feComposite><feGaussianBlur in="composite" stdDeviation="7" result="blur"></feGaussianBlur><feOffset dx="0" dy="0" result="offset"></feOffset><feComposite in2="SourceGraphic" in="offset" operator="atop"></feComposite></filter><filter id="shadow-7" height="300%" width="300%" x="-100%" y="-100%"><feFlood flood-color="rgba(0, 0, 0, 1)" result="flood"></feFlood><feComposite in="flood" in2="SourceGraphic" operator="out" result="composite"></feComposite><feGaussianBlur in="composite" stdDeviation="12" result="blur"></feGaussianBlur><feOffset dx="0" dy="0" result="offset"></feOffset><feComposite in2="SourceGraphic" in="offset" operator="atop"></feComposite></filter><filter id="shadow-8" height="300%" width="300%" x="-100%" y="-100%"><feFlood flood-color="rgba(0, 0, 0, 1)" result="flood"></feFlood><feComposite in="flood" in2="SourceGraphic" operator="out" result="composite"></feComposite><feGaussianBlur in="composite" stdDeviation="20" result="blur"></feGaussianBlur><feOffset dx="0" dy="0" result="offset"></feOffset><feComposite in2="SourceGraphic" in="offset" operator="atop"></feComposite></filter><filter id="shadow-9" height="300%" width="300%" x="-100%" y="-100%"><feFlood flood-color="rgba(0, 0, 0, 1)" result="flood"></feFlood><feComposite in="flood" in2="SourceGraphic" operator="out" result="composite"></feComposite><feGaussianBlur in="composite" stdDeviation="15" result="blur"></feGaussianBlur><feOffset dx="0" dy="0" result="offset"></feOffset><feComposite in2="SourceGraphic" in="offset" operator="atop"></feComposite></filter><filter id="shadow-10" height="300%" width="300%" x="-100%" y="-100%"><feFlood flood-color="rgba(0, 0, 0, 1)" result="flood"></feFlood><feComposite in="flood" in2="SourceGraphic" operator="out" result="composite"></feComposite><feGaussianBlur in="composite" stdDeviation="7" result="blur"></feGaussianBlur><feOffset dx="0" dy="0" result="offset"></feOffset><feComposite in2="SourceGraphic" in="offset" operator="atop"></feComposite></filter><filter id="shadow-11" height="300%" width="300%" x="-100%" y="-100%"><feFlood flood-color="rgba(0, 0, 0, 1)" result="flood"></feFlood><feComposite in="flood" in2="SourceGraphic" operator="out" result="composite"></feComposite><feGaussianBlur in="composite" stdDeviation="12" result="blur"></feGaussianBlur><feOffset dx="0" dy="0" result="offset"></feOffset><feComposite in2="SourceGraphic" in="offset" operator="atop"></feComposite></filter><filter id="shadow-12" height="300%" width="300%" x="-100%" y="-100%"><feFlood flood-color="rgba(0, 0, 0, 1)" result="flood"></feFlood><feComposite in="flood" in2="SourceGraphic" operator="out" result="composite"></feComposite><feGaussianBlur in="composite" stdDeviation="20" result="blur"></feGaussianBlur><feOffset dx="0" dy="0" result="offset"></feOffset><feComposite in2="SourceGraphic" in="offset" operator="atop"></feComposite></filter><filter id="shadow-13" height="300%" width="300%" x="-100%" y="-100%"><feFlood flood-color="rgba(0, 0, 0, 1)" result="flood"></feFlood><feComposite in="flood" in2="SourceGraphic" operator="out" result="composite"></feComposite><feGaussianBlur in="composite" stdDeviation="15" result="blur"></feGaussianBlur><feOffset dx="0" dy="0" result="offset"></feOffset><feComposite in2="SourceGraphic" in="offset" operator="atop"></feComposite></filter><filter id="shadow-14" height="300%" width="300%" x="-100%" y="-100%"><feFlood flood-color="rgba(0, 0, 0, 1)" result="flood"></feFlood><feComposite in="flood" in2="SourceGraphic" operator="out" result="composite"></feComposite><feGaussianBlur in="composite" stdDeviation="20" result="blur"></feGaussianBlur><feOffset dx="0" dy="0" result="offset"></feOffset><feComposite in2="SourceGraphic" in="offset" operator="atop"></feComposite></filter><filter id="shadow-15" height="300%" width="300%" x="-100%" y="-100%"><feFlood flood-color="rgba(0, 0, 0, 1)" result="flood"></feFlood><feComposite in="flood" in2="SourceGraphic" operator="out" result="composite"></feComposite><feGaussianBlur in="composite" stdDeviation="7" result="blur"></feGaussianBlur><feOffset dx="0" dy="0" result="offset"></feOffset><feComposite in2="SourceGraphic" in="offset" operator="atop"></feComposite></filter><filter id="shadow-16" height="300%" width="300%" x="-100%" y="-100%"><feFlood flood-color="rgba(0, 0, 0, 1)" result="flood"></feFlood><feComposite in="flood" in2="SourceGraphic" operator="out" result="composite"></feComposite><feGaussianBlur in="composite" stdDeviation="7" result="blur"></feGaussianBlur><feOffset dx="0" dy="0" result="offset"></feOffset><feComposite in2="SourceGraphic" in="offset" operator="atop"></feComposite></filter><filter id="shadow-17" height="300%" width="300%" x="-100%" y="-100%"><feFlood flood-color="rgba(0, 0, 0, 1)" result="flood"></feFlood><feComposite in="flood" in2="SourceGraphic" operator="out" result="composite"></feComposite><feGaussianBlur in="composite" stdDeviation="7" result="blur"></feGaussianBlur><feOffset dx="0" dy="0" result="offset"></feOffset><feComposite in2="SourceGraphic" in="offset" operator="atop"></feComposite></filter><filter id="shadow-18" height="300%" width="300%" x="-100%" y="-100%"><feFlood flood-color="rgba(0, 0, 0, 1)" result="flood"></feFlood><feComposite in="flood" in2="SourceGraphic" operator="out" result="composite"></feComposite><feGaussianBlur in="composite" stdDeviation="7" result="blur"></feGaussianBlur><feOffset dx="0" dy="0" result="offset"></feOffset><feComposite in2="SourceGraphic" in="offset" operator="atop"></feComposite></filter></defs><rect fill="#000000" fill-opacity="1" height="512" width="512" rx="50" ry="50"></rect><g class="" style="" transform="translate(0,0)"><g transform="translate(25.6, 25.6) scale(0.9, 0.9) rotate(0, 256, 256) skewX(0) skewY(0)"><path d="M485.846 30L312.879 104.424L377.162 124.744L247.535 189.93L331.172 209.344L234.176 271.563L453.309 201.863L358.019 173.537L471.192 112.8L399.077 97.776L485.846 30Z" class="" fill="#fc88fc" fill-opacity="1" filter="url(#shadow-2)"></path><path d="M205.386 75.766C177.32 75.649 155.46 132.298 147.66 166.373C136.4 215.563 133.131 249.888 146.832 299.432L129.484 304.23C114.021 248.313 121.239 209.48 131.785 161.889C142.332 114.297 146.305 91.486 127.326 87.707C85.244 79.328 82.04 178.17 79.57 222.604C78.174 248.412 80.28 279.621 86.11 300.156L69.209 306.352C54.779 253.002 62.552 208.395 67.516 155.582C70.009 140 65.729 129.905 48.414 130.416C32.581 130.883 21.399 273.778 35.139 309.457C43.852 362.518 66.386 440.029 46.094 462.223L18 494L223.973 494L243.959 465.408C267.039 460.4 272.379 445.548 280.982 431.621C306.273 390.675 363.366 348.455 410.096 332.395C431.238 324.885 388.184 283.849 356.26 299.613C301.255 326.775 274.614 355.911 238.488 337.908C182.633 310.074 191.243 237.26 202.627 175.078C208.768 141.534 243.037 85.476 209.783 76.254C208.339 75.938 206.865 75.775 205.387 75.766Z" class="selected" fill="#ffffff" fill-opacity="1" filter="url(#shadow-3)"></path></g></g></svg>
